elements/app-hax/lib/assets/images/Green Button.svg

<svg xmlns="http://www.w3.org/2000/svg" fill="none" width="194" height="59" viewBox="0 0 194 59"><path d="M0 0h194v59H0z" fill="#fff"/><path d="M11 18h7V8h158v10h7v22h-7v10H18V40h-7V18Z" stroke="#000" stroke-width="5"/><path d="M20.5 10.5v10h-7v17h7v10h153v-10h7v-17h-7v-10h-153Z" fill="#77C188"/><path d="M20.5 47.5V35h153v12.5h-153Z" fill="#5DA36D"/><path d="M21 26.5V14h152.5v12.5h-4v-6H25v6h-4Z" fill="#9AE7AB"/></svg>

<svg width="194" height="59" viewBox="0 0 194 59" fill="none" xmlns="http://www.w3.org/2000/svg">
<rect width="194" height="59" fill="white"/>
<path d="M11 18H18V8H176V18H183V40H176V50H18V40H11V18Z" stroke="black" stroke-width="5"/>
<path d="M20.5 10.5V20.5H13.5V37.5H20.5V47.5H173.5V37.5H180.5V20.5H173.5V10.5H20.5Z" fill="#77C188"/>
<path d="M20.5 47.5V35H173.5V47.5H20.5Z" fill="#5DA36D"/>
<path d="M21 26.5V14H173.5V26.5H169.5V20.5H25V26.5H21Z" fill="#9AE7AB"/>
</svg>
